X:1
T:Title
%%score { ( 1 3 ) | ( 2 4 ) }
L:1/8
M:3/4
K:Ab
V:1 treble nm="Grand Piano"
V:3 treble 
V:2 bass 
V:4 bass 
V:1
 z2 z2[Q:1/4=100] [CE]>[B,D] | [A,C]3 [CE] [CA]>[CB] | [DA]2 [DG]2 G>F | E3 F E>F |[M:2/4] [CE]4 | %5
[M:1/4] [CE]>[B,D] |[M:3/4] [A,C]3 [CE] [CA]>[CB] | [CEA]2 [B,EG]2 [EB]>[EB] | %8
 [=DB]3 [DF] [DG]>[DA] |[M:2/4] B4 |[M:1/4] E>F |[M:3/4] z D DG c>B | [CA]2 [CE]2 E>F | %13
 z D D[Gd] [Gd]>[Fd] |[M:2/4] [Ec]4 |[M:1/4] c>c |[M:3/4] e4 z2 |[M:7/8] [_Ge]2 [Fd]3 F>F | %18
[M:27/32] E/4-E/4-E/4-E/4-E/4-E/4-E/4-E/4-E/-<E/ z/4 z/4 z/ c/4-c/4-c/4-c/4-c/4-c/4-c/-<c/ z/4 | %19
[M:2/4] [CA]4 |] %20
V:2
 z2 z2 [A,,E,]>[A,,E,] | [A,,E,]3 [A,,E,] [A,,E,]>[A,,E,] | [B,,E,]2 [B,,E,]2 [E,B,D]>[E,A,D] | %3
 [E,G,D]3 [E,G,D] [E,G,D]>[E,G,D] |[M:2/4] [A,,A,]4 |[M:1/4] [A,,A,]>[A,,E,] | %6
[M:3/4] [A,,E,]3 [A,,E,] [A,,E,]>[A,,E,] | B,,2 B,,2 [B,,G,]>[B,,G,] | %8
 [B,,F,]3 [B,,A,] [B,,A,]>[B,,A,] |[M:2/4] [E,G,D]4 |[M:1/4] z2 | %11
[M:3/4] [E,G,D][E,G,] [E,G,][E,B,E] [E,G,E]>[E,G,D] | [A,,A,]2 [A,,A,]2 z2 | %13
 [E,G,D][E,G,] [E,G,][E,B,] [E,B,]>[E,G,] |[M:2/4] [A,,A,]4 |[M:1/4] z2 | %16
[M:3/4][K:treble] [A,CA][A,C] [A,C][A,E] [A,=D]>[K:bass][A,E] |[M:7/8] [D,A,]2 [D,A,]3 z2 | %18
[M:27/32] [E,A,C]/-<[E,A,C]/[E,A,]/-<[E,A,]/[E,A,]/-<[E,A,]/[E,A,E]/-<[E,A,E]/[G,E]/4-[G,E]/4-[G,E]/4-[G,E]/4-[G,E]/-<[G,E]/-[E,-G,D-E]/[E,D]/4 | %19
[M:2/4] [A,,E,]4 |] %20
V:3
 x6 | x6 | x6 | x6 |[M:2/4] x4 |[M:1/4] x2 |[M:3/4] x6 | x6 | x6 |[M:2/4] x4 |[M:1/4] x2 | %11
[M:3/4] E4 z2 | x6 | E4 z2 |[M:2/4] x4 |[M:1/4] x2 |[M:3/4] z A Ac _c>=c |[M:7/8] x7 | %18
[M:27/32] z/4 z/4 z/ C/-<C/C/-<C/c/-<c/ z/4 z/4 z/4 z/4 z/4 z/4 z/ B3/4 |[M:2/4] x4 |] %20
V:4
 x6 | x6 | x6 | x6 |[M:2/4] x4 |[M:1/4] x2 |[M:3/4] x6 | x6 | x6 |[M:2/4] x4 |[M:1/4] x2 | %11
[M:3/4] x6 | x6 | x6 |[M:2/4] x4 |[M:1/4] x2 |[M:3/4][K:treble] x11/2[K:bass] x/ |[M:7/8] x7 | %18
[M:27/32] z/4 z/4 z/4 z/4 z/4 z/4 z/4 z/4 z/4 z/4 z/4 z/4 z/4 z/4 z/ E,/4-E,/4-E,/4-E,/4-E,/-<E,/ z/4 z/ | %19
[M:2/4] x4 |] %20

